svg/aws-cloudtrail.svg

<?xml version="1.0" encoding="UTF-8"?>
<svg xmlns="http://www.w3.org/2000/svg" xmlns:xlink="http://www.w3.org/1999/xlink" width="32" height="32" viewBox="0 0 32 32">
<path fill-rule="nonzero" fill="rgb(90.588236%, 8.235294%, 48.235294%)" fill-opacity="1" d="M 0.203125 0.203125 L 31.796875 0.203125 L 31.796875 31.796875 L 0.203125 31.796875 Z M 0.203125 0.203125 "/>
<path fill-rule="nonzero" fill="rgb(100%, 100%, 100%)" fill-opacity="1" d="M 9.230469 21.882812 L 11.035156 21.882812 L 11.035156 20.976562 L 9.230469 20.976562 Z M 25.011719 15.1875 C 24.910156 13.8125 24.242188 12.804688 23.175781 12.449219 C 22.320312 12.164062 21.375 12.363281 20.660156 12.949219 C 20.230469 12.128906 19.679688 11.375 19.027344 10.714844 C 17.085938 8.800781 14.945312 8.3125 12.667969 9.265625 C 10.632812 10.109375 8.777344 12.894531 8.777344 15.101562 L 8.777344 15.191406 C 7.558594 15.601562 6.570312 16.5 6.105469 17.640625 L 6.9375 17.984375 C 7.535156 16.527344 8.925781 16.070312 9.339844 15.964844 C 9.539062 15.910156 9.679688 15.734375 9.679688 15.527344 L 9.679688 15.101562 C 9.679688 13.277344 11.328125 10.800781 13.015625 10.097656 C 14.949219 9.289062 16.714844 9.703125 18.390625 11.359375 C 19.105469 12.0625 19.804688 13.109375 20.089844 13.902344 C 20.148438 14.058594 20.285156 14.167969 20.449219 14.195312 C 20.613281 14.21875 20.773438 14.152344 20.871094 14.019531 C 21.371094 13.355469 22.179688 13.066406 22.890625 13.304688 C 23.675781 13.570312 24.125 14.386719 24.125 15.554688 C 24.125 15.777344 24.285156 15.964844 24.503906 16 C 24.835938 16.058594 27.734375 16.625 27.734375 19.621094 C 27.734375 22.722656 24.699219 22.78125 24.574219 22.785156 L 14.195312 22.785156 L 14.195312 23.6875 L 24.574219 23.6875 C 25.980469 23.683594 28.636719 22.828125 28.636719 19.621094 C 28.636719 16.816406 26.507812 15.558594 25.011719 15.1875 M 11.9375 21.882812 L 18.257812 21.882812 L 18.257812 20.976562 L 11.9375 20.976562 Z M 10.128906 23.6875 L 12.839844 23.6875 L 12.839844 22.785156 L 10.128906 22.785156 Z M 3.363281 23.6875 L 4.714844 23.6875 L 4.714844 22.785156 L 3.363281 22.785156 Z M 4.714844 20.070312 L 8.777344 20.070312 L 8.777344 19.167969 L 4.714844 19.167969 Z M 3.8125 21.882812 L 8.328125 21.882812 L 8.328125 20.976562 L 3.8125 20.976562 Z M 10.128906 20.070312 L 13.289062 20.070312 L 13.289062 19.167969 L 10.128906 19.167969 Z M 5.617188 23.6875 L 9.230469 23.6875 L 9.230469 22.785156 L 5.617188 22.785156 Z M 5.617188 23.6875 "/>
</svg>

<svg role="img" viewBox="0 0 32 32" xmlns="http://www.w3.org/2000/svg"><path d="M.203.203h31.594v31.594H.203Zm0 0" fill="rgb(90.588236%, 8.235294%, 48.235294%)"/><path d="M9.23 21.883h1.805v-.906H9.23Zm15.782-6.695c-.102-1.376-.77-2.383-1.836-2.739-.856-.285-1.801-.086-2.516.5a9.4 9.4 0 0 0-1.633-2.234c-1.941-1.914-4.082-2.402-6.359-1.45-2.035.844-3.89 3.63-3.89 5.837v.09c-1.22.41-2.208 1.308-2.673 2.449l.832.343c.598-1.457 1.989-1.914 2.403-2.02.2-.054.34-.23.34-.437v-.425c0-1.825 1.648-4.301 3.336-5.004 1.933-.809 3.699-.395 5.375 1.261.714.704 1.414 1.75 1.699 2.543a.46.46 0 0 0 .36.293.44.44 0 0 0 .421-.175c.5-.665 1.309-.954 2.02-.715.785.265 1.234 1.082 1.234 2.25 0 .222.16.41.379.445.332.059 3.23.625 3.23 3.621 0 3.102-3.035 3.16-3.16 3.164H14.195v.902h10.38c1.405-.003 4.062-.859 4.062-4.066 0-2.805-2.13-4.062-3.625-4.433m-13.074 6.695h6.32v-.906h-6.32Zm-1.81 1.805h2.712v-.903h-2.711Zm-6.765 0h1.352v-.903H3.363Zm1.352-3.618h4.062v-.902H4.715Zm-.902 1.813h4.515v-.906H3.813Zm6.316-1.813h3.16v-.902h-3.16Zm-4.512 3.617H9.23v-.902H5.617Zm0 0" fill="rgb(100%, 100%, 100%)"/></svg>
